SVG_Azure_All/Data Box Edge.svg

<?xml version="1.0" encoding="UTF-8" standalone="no"?>
<!-- Generated by Microsoft Visio, SVG Export Data Box Edge.svg Page-1 -->

<svg
   xmlns:dc="http://purl.org/dc/elements/1.1/"
   xmlns:cc="http://creativecommons.org/ns#"
   xmlns:rdf="http://www.w3.org/1999/02/22-rdf-syntax-ns#"
   xmlns:svg="http://www.w3.org/2000/svg"
   xmlns="http://www.w3.org/2000/svg"
   xmlns:sodipodi="http://sodipodi.sourceforge.net/DTD/sodipodi-0.dtd"
   xmlns:inkscape="http://www.inkscape.org/namespaces/inkscape"
   width="0.78734231in"
   height="0.55130297in"
   viewBox="0 0 56.688705 39.693861"
   xml:space="preserve"
   class="st4"
   version="1.1"
   id="svg32"
   sodipodi:docname="Data Box Edge.svg"
   style="font-size:12px;overflow:visible;color-interpolation-filters:sRGB;fill:none;fill-rule:evenodd;stroke-linecap:square;stroke-miterlimit:3"
   inkscape:version="0.92.5 (2060ec1f9f, 2020-04-08)"><metadata
   id="metadata36"><rdf:RDF><cc:Work
       rdf:about=""><dc:format>image/svg+xml</dc:format><dc:type
         rdf:resource="http://purl.org/dc/dcmitype/StillImage" /></cc:Work></rdf:RDF></metadata><sodipodi:namedview
   pagecolor="#ffffff"
   bordercolor="#666666"
   borderopacity="1"
   objecttolerance="10"
   gridtolerance="10"
   guidetolerance="10"
   inkscape:pageopacity="0"
   inkscape:pageshadow="2"
   inkscape:window-width="640"
   inkscape:window-height="480"
   id="namedview34"
   showgrid="false"
   inkscape:zoom="1.7326971"
   inkscape:cx="37.795797"
   inkscape:cy="22.744615"
   inkscape:window-x="0"
   inkscape:window-y="0"
   inkscape:window-maximized="0"
   inkscape:current-layer="svg32" />
	<style
   type="text/css"
   id="style2">
	<![CDATA[
		.st1 {fill:url(#grad0-5);stroke:none;stroke-linecap:butt;stroke-width:28.4446}
		.st2 {fill:#50e6ff;stroke:none;stroke-linecap:butt;stroke-width:28.4446}
		.st3 {fill:#ffffff;stroke:none;stroke-linecap:butt;stroke-width:28.4446}
		.st4 {fill:none;fill-rule:evenodd;font-size:12px;overflow:visible;stroke-linecap:square;stroke-miterlimit:3}
	]]>
	</style>

	<defs
   id="Patterns_And_Gradients">
		<linearGradient
   id="grad0-5"
   x1="0"
   y1="78.717752"
   x2="44.052292"
   y2="78.717752"
   gradientTransform="scale(1.2017536,0.83211734)"
   gradientUnits="userSpaceOnUse">
			<stop
   offset="0"
   stop-color="#0078d4"
   stop-opacity="1"
   id="stop4" />
			<stop
   offset="0.82"
   stop-color="#5ea0ef"
   stop-opacity="1"
   id="stop6" />
		</linearGradient>
	</defs>
	<g
   id="g30"
   transform="translate(-28.444624,-28.441117)">
		<title
   id="title10">Page-1</title>
		<g
   id="group5922-1"
   transform="translate(28.4453,-34.0157)">
			<title
   id="title12">Data Box Edge</title>
			<g
   id="shape5923-2"
   transform="translate(3.74803,-3.04559)">
				<title
   id="title14">path11</title>
				<path
   d="M 52.94,90.68 A 11.874,11.5979 -180 0 0 42.61,79.51 14.9606,14.6127 -180 0 0 27.18,65.51 15.4016,15.0434 -180 0 0 12.41,75.3 14.1102,13.7821 -180 0 0 0,88.65 a 14.3937,14.059 -180 0 0 14.9,13.5 h 1.32 24.13 0.66 A 12,11.7209 -180 0 0 52.94,90.68 Z"
   class="st1"
   id="path16"
   inkscape:connector-curvature="0"
   style="fill:url(#grad0-5);stroke:none;stroke-width:28.44459915;stroke-linecap:butt" />
			</g>
			<g
   id="shape5924-6">
				<title
   id="title19">path13</title>
				<path
   d="M 0,90.49 A 11.8425,11.5671 0 0 1 11.97,78.8 11.874,11.5979 0 0 1 23.94,90.49 v 11.66 H 11.97 A 11.8425,11.5671 0 0 1 0,90.49 Z"
   class="st2"
   id="path21"
   inkscape:connector-curvature="0"
   style="fill:#50e6ff;stroke:none;stroke-width:28.44459915;stroke-linecap:butt" />
			</g>
			<g
   id="shape5925-8"
   transform="translate(4.18898,-4.09156)">
				<title
   id="title24">path15</title>
				<path
   d="m 15.24,95.35 v -1.72 l -1.79,-0.61 -0.44,-1.17 0.88,-1.82 V 89.85 L 13.32,89.29 12.66,88.56 H 12.41 L 10.65,89.48 9.45,89.14 8.66,87.2 H 6.93 l -0.6,1.76 -1.32,0.52 -2.05,-0.96 -1.23,1.2 v 0.22 L 2.65,91.66 2.11,92.95 0,93.72 v 1.73 h 0.25 l 1.86,0.61 0.5,1.17 -0.94,2 1.23,1.23 h 0.25 l 1.73,-0.86 1.23,0.49 0.76,2.06 h 1.76 v -0.24 l 0.6,-1.85 1.2,-0.49 2.07,0.95 1.23,-1.2 v -0.24 l -0.88,-1.73 0.35,-1.2 z m -7.4,1.6 a 2.48819,2.43032 0 0 1 0,-4.83 2.45669,2.39956 0 0 1 2.49,2.4 2.45669,2.39956 0 0 1 -2.49,2.43 z"
   class="st3"
   id="path26"
   inkscape:connector-curvature="0"
   style="fill:#ffffff;stroke:none;stroke-width:28.44459915;stroke-linecap:butt" />
			</g>
		</g>
	</g>
</svg>

<?xml version="1.0" encoding="UTF-8" standalone="no"?>
<!DOCTYPE svg PUBLIC "-//W3C//DTD SVG 1.1//EN" "http://www.w3.org/Graphics/SVG/1.1/DTD/svg11.dtd">
<!-- Generated by Microsoft Visio, SVG Export Data Box Edge.svg Page-1 -->
<svg xmlns="http://www.w3.org/2000/svg" xmlns:xlink="http://www.w3.org/1999/xlink" xmlns:ev="http://www.w3.org/2001/xml-events"
		width="1.57754in" height="1.41879in" viewBox="0 0 113.583 102.153" xml:space="preserve" color-interpolation-filters="sRGB"
		class="st4">
	<style type="text/css">
	<![CDATA[
		.st1 {fill:url(#grad0-5);stroke:none;stroke-linecap:butt;stroke-width:28.4446}
		.st2 {fill:#50e6ff;stroke:none;stroke-linecap:butt;stroke-width:28.4446}
		.st3 {fill:#ffffff;stroke:none;stroke-linecap:butt;stroke-width:28.4446}
		.st4 {fill:none;fill-rule:evenodd;font-size:12px;overflow:visible;stroke-linecap:square;stroke-miterlimit:3}
	]]>
	</style>

	<defs id="Patterns_And_Gradients">
		<linearGradient id="grad0-5" x1="0" y1="0" x2="1" y2="0" gradientTransform="rotate(-90 0.5 0.5)">
			<stop offset="0" stop-color="#0078d4" stop-opacity="1"/>
			<stop offset="0.82" stop-color="#5ea0ef" stop-opacity="1"/>
		</linearGradient>
	</defs>
	<g>
		<title>Page-1</title>
		<g id="group5803-1" transform="translate(28.4453,-34.0157)">
			<title>Data Box Edge</title>
			<g id="shape5804-2" transform="translate(3.74803,-3.04559)">
				<title>path11</title>
				<path d="M52.94 90.68 A11.874 11.5979 -180 0 0 42.61 79.51 A14.9606 14.6127 -180 0 0 27.18 65.51 A15.4016 15.0434
							 -180 0 0 12.41 75.3 A14.1102 13.7821 -180 0 0 0 88.65 A14.3937 14.059 -180 0 0 14.9 102.15 L16.22 102.15
							 L40.35 102.15 L41.01 102.15 A12 11.7209 -180 0 0 52.94 90.68 Z" class="st1"/>
			</g>
			<g id="shape5805-6">
				<title>path13</title>
				<path d="M0 90.49 A11.8425 11.5671 0 0 1 11.97 78.8 A11.874 11.5979 0 0 1 23.94 90.49 L23.94 102.15 L11.97 102.15
							 A11.8425 11.5671 0 0 1 0 90.49 Z" class="st2"/>
			</g>
			<g id="shape5806-8" transform="translate(4.18898,-4.09156)">
				<title>path15</title>
				<path d="M15.24 95.35 L15.24 93.63 L13.45 93.02 L13.01 91.85 L13.89 90.03 L13.89 89.85 L13.32 89.29 L12.66 88.56
							 L12.41 88.56 L10.65 89.48 L9.45 89.14 L8.66 87.2 L6.93 87.2 L6.33 88.96 L5.01 89.48 L2.96 88.52 L1.73
							 89.72 L1.73 89.94 L2.65 91.66 L2.11 92.95 L0 93.72 L0 95.45 L0.25 95.45 L2.11 96.06 L2.61 97.23 L1.67
							 99.23 L2.9 100.46 L3.15 100.46 L4.88 99.6 L6.11 100.09 L6.87 102.15 L8.63 102.15 L8.63 101.91 L9.23
							 100.06 L10.43 99.57 L12.5 100.52 L13.73 99.32 L13.73 99.08 L12.85 97.35 L13.2 96.15 L15.24 95.35 ZM7.84
							 96.95 A2.48819 2.43032 0 0 1 7.84 92.12 A2.45669 2.39956 0 0 1 10.33 94.52 A2.45669 2.39956 0 0 1 7.84
							 96.95 Z" class="st3"/>
			</g>
		</g>
	</g>
</svg>
